; generated by Slic3r 1.0.0RC2 on 2015-02-08 at 11:29:14

; layer_height = 0.35
; perimeters = 2
; top_solid_layers = 2
; bottom_solid_layers = 2
; fill_density = 0.3
; perimeter_speed = 50
; infill_speed = 60
; travel_speed = 100
; nozzle_diameter = 0.6
; filament_diameter = 3
; extrusion_multiplier = 0.4
; perimeters extrusion width = 0.60mm
; infill extrusion width = 0.86mm
; solid infill extrusion width = 0.86mm
; top infill extrusion width = 0.86mm

G21 ; set units to millimeters
M107
M190 S60 ; wait for bed temperature to be reached
M104 S190 ; set temperature
G28 ; home all axes
M221 S180
M220 S80
M109 S190 ; wait for temperature to be reached
G90 ; use absolute coordinates
G92 E0
M82 ; use absolute distances for extrusion
G1 F480.000 E-0.80000
G92 E0
G1 Z0.350 F6000.000
G1 X37.070 Y51.454 F6000.000
G1 E0.80000 F480.000
G1 X38.930 Y50.284 E0.82611 F1500.000
G1 X41.140 Y49.204 E0.85534
G1 X43.440 Y48.364 E0.88444
G1 X45.730 Y47.804 E0.91246
G1 X45.990 Y47.754 E0.91560
G1 X48.000 Y47.484 E0.93970
G1 X48.550 Y47.444 E0.94626
G1 X50.310 Y47.404 E0.96718
G1 X50.840 Y47.414 E0.97348
G1 X52.720 Y47.564 E0.99589
G1 X53.250 Y47.634 E1.00224
G1 X55.370 Y48.054 E1.02792
G1 X57.830 Y48.794 E1.05845
G1 X59.700 Y49.584 E1.08258
G1 X61.950 Y50.824 E1.11311
G1 X63.830 Y52.124 E1.14027
G1 X64.050 Y52.294 E1.14357
G1 X65.700 Y53.744 E1.16968
G1 X67.510 Y55.714 E1.20147
G1 X68.710 Y57.334 E1.22542
G1 X70.020 Y59.534 E1.25585
G1 X70.150 Y59.784 E1.25920
G1 X70.980 Y61.624 E1.28319
G1 X71.080 Y61.874 E1.28639
G1 X71.720 Y63.794 E1.31044
G1 X71.860 Y64.324 E1.31695
G1 X72.280 Y66.304 E1.34101
G1 X72.560 Y68.764 E1.37043
G1 X72.600 Y69.904 E1.38398
G1 X72.560 Y71.224 E1.39968
G1 X72.280 Y73.684 E1.42910
G1 X71.830 Y75.804 E1.45485
G1 X71.720 Y76.214 E1.45990
G1 X71.080 Y78.124 E1.48384
G1 X70.020 Y80.464 E1.51436
G1 X68.860 Y82.434 E1.54153
G1 X68.710 Y82.664 E1.54480
G1 X67.510 Y84.284 E1.56875
G1 X65.840 Y86.114 E1.59819
G1 X64.050 Y87.694 E1.62657
G1 X63.830 Y87.864 E1.62987
G1 X61.950 Y89.164 E1.65703
G1 X59.700 Y90.404 E1.68756
G1 X57.830 Y91.194 E1.71169
G1 X55.110 Y92.004 E1.74541
G1 X53.130 Y92.374 E1.76935
G1 X50.850 Y92.574 E1.79655
G1 X50.560 Y92.584 E1.80000
G1 X48.280 Y92.524 E1.82710
G1 X46.010 Y92.244 E1.85428
G1 X43.490 Y91.634 E1.88509
G1 X41.490 Y90.924 E1.91031
G1 X41.000 Y90.724 E1.91660
G1 X39.170 Y89.834 E1.94078
G1 X38.780 Y89.614 E1.94611
G1 X37.070 Y88.534 E1.97014
G1 X35.080 Y86.984 E2.00012
G1 X33.410 Y85.344 E2.02793
G1 X31.950 Y83.594 E2.05501
G1 X30.610 Y81.604 E2.08352
G1 X30.370 Y81.204 E2.08907
G1 X29.450 Y79.404 E2.11309
G1 X28.610 Y77.294 E2.14008
G1 X28.520 Y77.024 E2.14346
G1 X27.860 Y74.554 E2.17384
G1 X27.510 Y72.284 E2.20114
G1 X27.400 Y70.264 E2.22518
G1 X27.400 Y69.724 E2.23159
G1 X27.510 Y67.704 E2.25563
G1 X27.540 Y67.434 E2.25886
G1 X27.860 Y65.444 E2.28281
G1 X28.520 Y62.964 E2.31331
G1 X28.610 Y62.694 E2.31669
G1 X29.450 Y60.584 E2.34368
G1 X30.470 Y58.614 E2.37004
G1 X31.950 Y56.394 E2.40175
G1 X33.420 Y54.634 E2.42900
G1 X35.050 Y53.044 E2.45606
G1 X36.997 Y51.507 E2.48554
G1 F480.000 E1.68554
G92 E0
G1 X31.319 Y73.973 F6000.000
G1 E0.80000 F480.000
G1 X31.011 Y72.048 E0.82316 F1500.000
G1 X30.903 Y69.892 E0.84883
G1 X31.011 Y67.955 E0.87187
G1 X31.320 Y66.023 E0.89513
G1 X31.886 Y63.947 E0.92070
G1 X32.513 Y62.343 E0.94117
G1 X32.694 Y61.933 E0.94648
G1 X33.597 Y60.218 E0.96953
G1 X34.673 Y58.604 E0.99257
G1 X35.921 Y57.096 E1.01584
G1 X37.461 Y55.594 E1.04140
G1 X38.996 Y54.389 E1.06459
G1 X40.827 Y53.249 E1.09023
G1 X42.573 Y52.404 E1.11327
G1 X44.415 Y51.737 E1.13655
G1 X46.290 Y51.269 E1.15952
G1 X46.502 Y51.224 E1.16210
G1 X48.438 Y50.965 E1.18531
G1 X50.376 Y50.907 E1.20835
G1 X52.310 Y51.048 E1.23139
G1 X52.754 Y51.107 E1.23671
G1 X54.446 Y51.426 E1.25718
G1 X56.511 Y52.045 E1.28280
G1 X58.312 Y52.804 E1.30602
G1 X60.196 Y53.851 E1.33163
G1 X61.788 Y54.972 E1.35477
G1 X63.254 Y56.250 E1.37788
G1 X64.720 Y57.830 E1.40350
G1 X65.887 Y59.399 E1.42673
G1 X66.979 Y61.255 E1.45233
G1 X67.691 Y62.824 E1.47279
G1 X67.856 Y63.239 E1.47811
G1 X68.454 Y65.084 E1.50115
G1 X68.859 Y66.980 E1.52420
G1 X69.069 Y68.925 E1.54744
G1 X69.100 Y69.995 E1.56016
G1 X69.068 Y71.078 E1.57304
G1 X68.860 Y73.017 E1.59621
G1 X68.397 Y75.126 E1.62186
G1 X67.784 Y76.965 E1.64491
G1 X66.977 Y78.748 E1.66817
G1 X66.002 Y80.420 E1.69116
G1 X65.886 Y80.603 E1.69374
G1 X64.859 Y81.985 E1.71420
G1 X64.577 Y82.333 E1.71952
G1 X63.254 Y83.750 E1.74256
G1 X61.792 Y85.024 E1.76561
G1 X60.191 Y86.152 E1.78888
G1 X58.311 Y87.196 E1.81444
G1 X56.512 Y87.955 E1.83763
G1 X54.446 Y88.574 E1.86326
G1 X52.540 Y88.929 E1.88631
G1 X50.587 Y89.089 E1.90960
G1 X48.438 Y89.035 E1.93514
G1 X46.502 Y88.776 E1.95835
G1 X44.409 Y88.262 E1.98397
G1 X42.578 Y87.598 E2.00710
G1 X40.827 Y86.751 E2.03022
G1 X39.178 Y85.732 E2.05326
G1 X38.997 Y85.611 E2.05584
G1 X37.460 Y84.405 E2.07907
G1 X36.066 Y83.059 E2.10209
G1 X34.818 Y81.575 E2.12513
G1 X34.549 Y81.217 E2.13045
G1 X33.488 Y79.595 E2.15349
G1 X32.598 Y77.872 E2.17653
G1 X31.885 Y76.051 E2.19977
G1 X31.339 Y74.061 E2.22429
G1 X30.746 Y74.160 F6000.000
G1 X30.414 Y72.116 E2.24889 F750.000
G1 X30.303 Y70.124 E2.27260
G1 X30.414 Y67.885 E2.29925
G1 X30.730 Y65.910 E2.32301
G1 X31.319 Y63.748 E2.34965
G1 X31.955 Y62.123 E2.37038
G1 X32.158 Y61.663 E2.37635
G1 X33.088 Y59.900 E2.40004
G1 X34.194 Y58.242 E2.42373
G1 X35.469 Y56.700 E2.44750
G1 X37.073 Y55.135 E2.47413
G1 X38.645 Y53.902 E2.49788
G1 X40.549 Y52.717 E2.52453
G1 X42.344 Y51.849 E2.54822
G1 X44.225 Y51.167 E2.57200
G1 X46.157 Y50.684 E2.59566
G1 X46.400 Y50.632 E2.59862
G1 X48.381 Y50.367 E2.62237
G1 X50.374 Y50.307 E2.64607
G1 X50.623 Y50.311 E2.64902
G1 X52.362 Y50.450 E2.66976
G1 X52.860 Y50.517 E2.67573
G1 X54.575 Y50.840 E2.69646
G1 X56.723 Y51.483 E2.72311
G1 X58.565 Y52.260 E2.74686
G1 X60.525 Y53.349 E2.77351
G1 X62.157 Y54.499 E2.79724
G1 X63.662 Y55.809 E2.82095
G1 X65.187 Y57.453 E2.84760
G1 X66.380 Y59.057 E2.87136
G1 X67.517 Y60.989 E2.89800
G1 X68.238 Y62.578 E2.91873
G1 X68.424 Y63.045 E2.92470
G1 X69.037 Y64.942 E2.94839
G1 X69.453 Y66.892 E2.97208
G1 X69.667 Y68.880 E2.99585
G1 X69.700 Y69.998 E3.00914
G1 X69.667 Y71.121 E3.02249
G1 X69.453 Y73.107 E3.04623
G1 X68.972 Y75.298 E3.07289
G1 X68.341 Y77.190 E3.09658
G1 X67.517 Y79.012 E3.12035
G1 X66.514 Y80.733 E3.14403
G1 X66.380 Y80.943 E3.14698
G1 X65.339 Y82.344 E3.16772
G1 X65.023 Y82.734 E3.17369
G1 X63.662 Y84.191 E3.19738
G1 X62.158 Y85.500 E3.22107
G1 X60.523 Y86.652 E3.24484
G1 X58.565 Y87.740 E3.27147
G1 X56.723 Y88.517 E3.29521
G1 X54.575 Y89.160 E3.32187
G1 X52.615 Y89.525 E3.34556
G1 X50.621 Y89.689 E3.36934
G1 X48.381 Y89.633 E3.39596
G1 X46.400 Y89.368 E3.41971
G1 X44.223 Y88.833 E3.44635
G1 X42.346 Y88.152 E3.47008
G1 X40.549 Y87.283 E3.49380
G1 X38.853 Y86.236 E3.51749
G1 X38.645 Y86.098 E3.52045
G1 X37.073 Y84.864 E3.54420
G1 X35.639 Y83.480 E3.56789
G1 X35.468 Y83.299 E3.57085
G1 X34.354 Y81.955 E3.59158
G1 X34.053 Y81.554 E3.59755
G1 X32.962 Y79.885 E3.62124
G1 X32.048 Y78.113 E3.64493
G1 X31.319 Y76.251 E3.66869
G1 X30.767 Y74.247 E3.69340
G1 X31.197 Y73.764 F6000.000
G1 X33.516 Y78.674 F6000.000
G1 X41.344 Y86.502 E3.87077 F1800.000
G1 X43.423 Y87.437 F6000.000
G1 X32.566 Y76.580 E4.11677 F1800.000
G1 X32.028 Y74.898 E4.14507
G1 X45.110 Y87.979 E4.44148
G1 X46.621 Y88.347 E4.46640
G1 X31.674 Y73.400 E4.80508
G1 X31.456 Y72.038 E4.82718
G1 X47.942 Y88.523 E5.20073
G1 X49.175 Y88.612 E5.22054
G1 X31.384 Y70.822 E5.62365
G1 X31.367 Y69.660 E5.64227
G1 X50.348 Y88.642 E6.07237
G1 X51.428 Y88.578 E6.08971
G1 X31.422 Y68.571 E6.54304
G1 X31.525 Y67.531 E6.55979
G1 X52.485 Y88.491 E7.03473
G1 X53.449 Y88.311 E7.05044
G1 X31.683 Y66.545 E7.54364
G1 X31.890 Y65.608 E7.55902
G1 X54.407 Y88.125 E8.06923
G1 X55.288 Y87.861 E8.08396
G1 X32.135 Y64.709 E8.60857
G1 X32.404 Y63.833 E8.62324
G1 X56.168 Y87.597 E9.16171
G1 X56.989 Y87.274 E9.17585
G1 X32.726 Y63.011 E9.72564
G1 X33.059 Y62.200 E9.73969
G1 X57.794 Y86.935 E10.30017
G1 X58.557 Y86.554 E10.31383
G1 X33.452 Y61.449 E10.88271
G1 X33.845 Y60.698 E10.89629
G1 X59.293 Y86.146 E11.47294
G1 X60.022 Y85.731 E11.48638
G1 X34.280 Y59.989 E12.06968
G1 X34.738 Y59.303 E12.08290
G1 X60.694 Y85.258 E12.67104
G1 X61.365 Y84.785 E12.68419
G1 X35.218 Y58.638 E13.27667
G1 X35.735 Y58.012 E13.28969
G1 X61.987 Y84.264 E13.88454
G1 X62.595 Y83.728 E13.89753
G1 X36.283 Y57.415 E14.49375
G1 X36.855 Y56.843 E14.50671
G1 X63.168 Y83.157 E15.10296
G1 X63.740 Y82.585 E15.11592
G1 X37.427 Y56.271 E15.71217
G1 X38.017 Y55.718 E15.72514
G1 X64.288 Y81.988 E16.32040
G1 X64.786 Y81.342 E16.33347
G1 X38.659 Y55.215 E16.92549
G1 X39.305 Y54.717 E16.93856
G1 X65.274 Y80.686 E17.52700
G1 X65.730 Y79.998 E17.54023
G1 X40.010 Y54.278 E18.12303
G1 X40.715 Y53.839 E18.13633
G1 X66.154 Y79.278 E18.71276
G1 X66.577 Y78.558 E18.72615
G1 X41.454 Y53.435 E19.29542
G1 X42.224 Y53.060 E19.30914
G1 X66.935 Y77.771 E19.86907
G1 X67.291 Y76.983 E19.88292
G1 X43.021 Y52.713 E20.43286
G1 X43.865 Y52.413 E20.44722
G1 X67.593 Y76.141 E20.98488
G1 X67.879 Y75.283 E20.99937
G1 X44.709 Y52.113 E21.52440
G1 X45.628 Y51.888 E21.53956
G1 X68.111 Y74.371 E22.04900
G1 X68.317 Y73.432 E22.06439
G1 X46.551 Y51.666 E22.55760
G1 X47.556 Y51.528 E22.57386
G1 X68.477 Y72.449 E23.04791
G1 X68.588 Y71.416 E23.06455
G1 X48.572 Y51.399 E23.51811
G1 X49.683 Y51.367 E23.53593
G1 X68.648 Y70.332 E23.96567
G1 X68.634 Y69.174 E23.98423
G1 X50.844 Y51.383 E24.38734
G1 X52.078 Y51.474 E24.40717
G1 X68.515 Y67.911 E24.77962
G1 X68.317 Y66.568 E24.80137
G1 X53.433 Y51.684 E25.13862
G1 X54.923 Y52.030 E25.16312
G1 X67.996 Y65.103 E25.45934
G1 X67.442 Y63.405 E25.48795
G1 X56.597 Y52.560 E25.73369
G1 X58.713 Y53.532 F6000.000
G1 X66.511 Y61.330 E25.91040 F1800.000
G1 X63.738 Y57.413 F6000.000
G1 X62.615 Y56.290 E25.93585 F1800.000
G1 X35.969 Y82.271 F6000.000
G1 X37.843 Y84.145 E25.97830 F1800.000
M106 S197
G1 F480.000 E25.17830
G92 E0
G1 Z0.700 F6000.000
G1 X58.202 Y52.752 F6000.000
G1 E0.80000 F480.000
G1 X58.866 Y53.092 E0.80886 F3000
G1 X59.721 Y53.566 E0.82048
G1 X60.358 Y53.955 E0.82935
G1 X61.158 Y54.517 E0.84096
G1 X61.770 Y54.958 E0.84993
G1 X62.345 Y55.443 E0.85887
G1 X63.081 Y56.087 E0.87049
G1 X63.614 Y56.610 E0.87936
G1 X64.768 Y57.889 E0.89984
G1 X65.809 Y59.284 E0.92052
G1 X66.209 Y59.912 E0.92937
G1 X66.705 Y60.754 E0.94098
G1 X67.058 Y61.412 E0.94985
G1 X67.768 Y62.993 E0.97045
G1 X68.325 Y64.629 E0.99099
G1 X68.521 Y65.349 E0.99986
G1 X68.868 Y67.038 E1.02035
G1 X69.058 Y68.768 E1.04104
G1 X69.100 Y69.995 E1.05562
G1 X69.058 Y71.235 E1.07036
G1 X68.869 Y72.959 E1.09097
G1 X68.521 Y74.651 E1.11150
G1 X68.325 Y75.371 E1.12037
G1 X67.769 Y77.003 E1.14085
G1 X67.056 Y78.592 E1.16156
G1 X66.705 Y79.246 E1.17038
G1 X66.209 Y80.088 E1.18199
G1 X65.808 Y80.718 E1.19086
G1 X64.770 Y82.109 E1.21149
G1 X63.614 Y83.390 E1.23200
G1 X63.081 Y83.913 E1.24087
G1 X61.774 Y85.038 E1.26136
G1 X60.353 Y86.048 E1.28207
G1 X59.721 Y86.434 E1.29088
G1 X58.866 Y86.908 E1.30249
G1 X58.201 Y87.248 E1.31137
G1 X57.301 Y87.628 E1.32298
G1 X56.601 Y87.922 E1.33201
G1 X55.891 Y88.158 E1.34089
G1 X54.956 Y88.441 E1.35250
G1 X54.232 Y88.622 E1.36138
G1 X52.535 Y88.930 E1.38186
G1 X50.798 Y89.081 E1.40259
G1 X50.058 Y89.095 E1.41139
G1 X49.081 Y89.069 E1.42300
G1 X48.335 Y89.026 E1.43187
G1 X46.613 Y88.796 E1.45253
G1 X45.882 Y88.642 E1.46140
G1 X44.933 Y88.410 E1.47301
G1 X44.216 Y88.201 E1.48188
G1 X42.591 Y87.604 E1.50246
G1 X41.029 Y86.859 E1.52302
G1 X40.378 Y86.494 E1.53189
G1 X38.928 Y85.562 E1.55237
G1 X37.558 Y84.490 E1.57304
G1 X37.007 Y83.988 E1.58190
G1 X36.307 Y83.307 E1.59351
G1 X35.794 Y82.764 E1.60238
G1 X35.170 Y82.012 E1.61400
G1 X34.695 Y81.425 E1.62298
G1 X34.267 Y80.807 E1.63191
G1 X33.726 Y79.993 E1.64352
G1 X33.349 Y79.348 E1.65240
G1 X32.571 Y77.810 E1.67288
G1 X31.933 Y76.191 E1.69356
G1 X31.711 Y75.481 E1.70240
G1 X31.454 Y74.538 E1.71402
G1 X31.286 Y73.810 E1.72289
G1 X31.016 Y72.097 E1.74349
G1 X30.908 Y70.373 E1.76402
G1 X30.908 Y69.627 E1.77290
G1 X31.016 Y67.906 E1.79338
G1 X31.287 Y66.186 E1.81408
G1 X31.454 Y65.462 E1.82291
G1 X31.711 Y64.519 E1.83452
G1 X31.934 Y63.807 E1.84339
G1 X32.570 Y62.192 E1.86401
G1 X33.349 Y60.652 E1.88453
G1 X33.726 Y60.007 E1.89340
G1 X34.267 Y59.193 E1.90501
G1 X34.692 Y58.579 E1.91389
G1 X35.797 Y57.232 E1.93460
G1 X36.307 Y56.693 E1.94341
G1 X37.007 Y56.012 E1.95502
G1 X37.559 Y55.509 E1.96390
G1 X38.927 Y54.439 E1.98453
G1 X40.378 Y53.506 E2.00503
G1 X41.029 Y53.141 E2.01390
G1 X42.585 Y52.399 E2.03439
G1 X44.222 Y51.798 E2.05511
G1 X44.933 Y51.590 E2.06391
G1 X45.882 Y51.358 E2.07553
G1 X46.613 Y51.204 E2.08440
G1 X48.335 Y50.974 E2.10505
G1 X49.081 Y50.931 E2.11392
G1 X50.058 Y50.905 E2.12554
G1 X50.804 Y50.920 E2.13441
G1 X52.529 Y51.069 E2.15498
G1 X54.232 Y51.378 E2.17554
G1 X54.956 Y51.559 E2.18442
G1 X56.600 Y52.078 E2.20490
G1 X58.119 Y52.717 E2.22449
G1 X58.455 Y52.208 F6000.000
G1 X59.148 Y52.563 E2.23374 F1500
G1 X60.023 Y53.047 E2.24563
G1 X60.687 Y53.453 E2.25488
G1 X61.505 Y54.028 E2.26676
G1 X62.139 Y54.485 E2.27605
G1 X62.736 Y54.988 E2.28532
G1 X63.489 Y55.646 E2.29721
G1 X64.044 Y56.192 E2.30646
G1 X65.236 Y57.512 E2.32759
G1 X66.302 Y58.942 E2.34879
G1 X66.721 Y59.598 E2.35804
G1 X67.228 Y60.459 E2.36992
G1 X67.596 Y61.146 E2.37917
G1 X68.326 Y62.771 E2.40035
G1 X68.900 Y64.456 E2.42150
G1 X69.104 Y65.207 E2.43075
G1 X69.462 Y66.949 E2.45188
G1 X69.657 Y68.723 E2.47309
G1 X69.700 Y69.998 E2.48825
G1 X69.657 Y71.278 E2.50347
G1 X69.462 Y73.049 E2.52465
G1 X69.104 Y74.793 E2.54579
G1 X68.900 Y75.544 E2.55505
G1 X68.326 Y77.227 E2.57618
G1 X67.595 Y78.856 E2.59739
G1 X67.228 Y79.541 E2.60662
G1 X66.721 Y80.402 E2.61851
G1 X66.302 Y81.059 E2.62776
G1 X65.236 Y82.487 E2.64894
G1 X64.044 Y83.808 E2.67008
G1 X63.489 Y84.354 E2.67934
G1 X62.141 Y85.514 E2.70047
G1 X60.686 Y86.548 E2.72168
G1 X60.023 Y86.953 E2.73092
G1 X59.148 Y87.437 E2.74280
G1 X58.455 Y87.792 E2.75205
G1 X57.534 Y88.181 E2.76393
G1 X56.812 Y88.484 E2.77324
G1 X56.073 Y88.730 E2.78250
G1 X55.116 Y89.019 E2.79438
G1 X54.360 Y89.209 E2.80363
G1 X52.610 Y89.526 E2.82477
G1 X50.832 Y89.680 E2.84598
G1 X50.055 Y89.695 E2.85521
G1 X49.056 Y89.668 E2.86709
G1 X48.278 Y89.624 E2.87635
G1 X46.511 Y89.388 E2.89754
G1 X45.749 Y89.227 E2.90679
G1 X44.778 Y88.990 E2.91867
G1 X44.030 Y88.771 E2.92793
G1 X42.358 Y88.157 E2.94909
G1 X40.751 Y87.391 E2.97025
G1 X40.072 Y87.010 E2.97950
G1 X38.576 Y86.049 E3.00064
G1 X37.171 Y84.949 E3.02183
G1 X36.596 Y84.425 E3.03108
G1 X35.879 Y83.728 E3.04296
G1 X35.345 Y83.162 E3.05222
G1 X34.706 Y82.392 E3.06410
G1 X34.214 Y81.785 E3.07339
G1 X33.770 Y81.143 E3.08266
G1 X33.217 Y80.310 E3.09454
G1 X32.824 Y79.638 E3.10380
G1 X32.021 Y78.051 E3.12493
G1 X31.367 Y76.392 E3.14613
G1 X31.135 Y75.649 E3.15537
G1 X30.872 Y74.684 E3.16726
G1 X30.697 Y73.926 E3.17651
G1 X30.420 Y72.166 E3.19769
G1 X30.308 Y70.389 E3.21883
G1 X30.308 Y69.611 E3.22809
G1 X30.420 Y67.836 E3.24922
G1 X30.697 Y66.073 E3.27043
G1 X30.872 Y65.316 E3.27967
G1 X31.135 Y64.351 E3.29155
G1 X31.367 Y63.608 E3.30080
G1 X32.021 Y61.949 E3.32198
G1 X32.824 Y60.362 E3.34313
G1 X33.217 Y59.690 E3.35238
G1 X33.770 Y58.857 E3.36426
G1 X34.213 Y58.216 E3.37352
G1 X35.346 Y56.837 E3.39472
G1 X35.879 Y56.272 E3.40396
G1 X36.596 Y55.575 E3.41584
G1 X37.172 Y55.051 E3.42509
G1 X38.576 Y53.952 E3.44628
G1 X40.072 Y52.990 E3.46742
G1 X40.751 Y52.609 E3.47667
G1 X42.356 Y51.844 E3.49781
G1 X44.032 Y51.228 E3.51902
G1 X44.778 Y51.011 E3.52825
G1 X45.749 Y50.773 E3.54013
G1 X46.511 Y50.612 E3.54939
G1 X48.278 Y50.376 E3.57058
G1 X49.056 Y50.332 E3.57983
G1 X50.055 Y50.305 E3.59171
G1 X50.834 Y50.320 E3.60097
G1 X52.608 Y50.474 E3.62213
G1 X54.360 Y50.791 E3.64329
G1 X55.116 Y50.981 E3.65254
G1 X56.073 Y51.270 E3.66443
G1 X56.812 Y51.516 E3.67368
G1 X58.372 Y52.173 E3.69380
G1 X58.500 Y52.806 F6000.000
G1 X41.350 Y53.476 F6000.000
G1 X33.505 Y61.321 E3.87161 F3600
G1 X32.567 Y63.403 F6000.000
G1 X43.401 Y52.569 E4.11717 F3600
G1 X45.114 Y52.000 E4.14611
G1 X32.008 Y65.106 E4.44316
G1 X31.670 Y66.589 E4.46754
G1 X46.602 Y51.657 E4.80597
