; generated by Slic3r 1.0.0RC2 on 2015-02-08 at 04:30:13

; layer_height = 0.35
; perimeters = 2
; top_solid_layers = 2
; bottom_solid_layers = 2
; fill_density = 0.3
; perimeter_speed = 50
; infill_speed = 60
; travel_speed = 100
; nozzle_diameter = 0.6
; filament_diameter = 3
; extrusion_multiplier = 0.4
; perimeters extrusion width = 0.60mm
; infill extrusion width = 0.86mm
; solid infill extrusion width = 0.86mm
; top infill extrusion width = 0.86mm

G21 ; set units to millimeters
M107
M190 S60 ; wait for bed temperature to be reached
M104 S190 ; set temperature
G28 ; home all axes
M221 S180
M220 S80
M109 S190 ; wait for temperature to be reached
G90 ; use absolute coordinates
G92 E0
M82 ; use absolute distances for extrusion
G1 F480.000 E-0.80000
G92 E0
G1 Z0.350 F6000.000
G1 X37.500 Y51.020 F6000.000
G1 E0.80000 F480.000
G1 X37.780 Y50.840 E0.80396 F1500.000
G1 X39.510 Y49.840 E0.82770
G1 X39.820 Y49.690 E0.83179
G1 X42.840 Y48.440 E0.87064
G1 X43.150 Y48.330 E0.87454
G1 X45.080 Y47.810 E0.89830
G1 X45.420 Y47.740 E0.90242
G1 X48.660 Y47.310 E0.94126
G1 X49.000 Y47.290 E0.94531
G1 X51.000 Y47.290 E0.96908
G1 X51.340 Y47.310 E0.97312
G1 X54.790 Y47.780 E1.01450
G1 X56.840 Y48.330 E1.03972
G1 X57.150 Y48.440 E1.04363
G1 X60.170 Y49.690 E1.08247
G1 X60.480 Y49.840 E1.08657
G1 X62.210 Y50.840 E1.11031
G1 X62.490 Y51.020 E1.11427
G1 X65.080 Y53.000 E1.15301
G1 X65.340 Y53.230 E1.15714
G1 X66.760 Y54.650 E1.18100
G1 X66.990 Y54.910 E1.18513
G1 X69.010 Y57.560 E1.22472
G1 X70.150 Y59.520 E1.25167
G1 X70.300 Y59.820 E1.25565
G1 X71.550 Y62.840 E1.29450
G1 X71.660 Y63.150 E1.29840
G1 X72.180 Y65.080 E1.32216
G1 X72.250 Y65.420 E1.32628
G1 X72.680 Y68.660 E1.36512
G1 X72.700 Y69.000 E1.36917
G1 X72.700 Y71.000 E1.39294
G1 X72.680 Y71.340 E1.39698
G1 X72.250 Y74.570 E1.43571
G1 X72.180 Y74.910 E1.43983
G1 X71.660 Y76.840 E1.46359
G1 X71.550 Y77.150 E1.46749
G1 X70.300 Y80.170 E1.50634
G1 X70.150 Y80.480 E1.51043
G1 X69.150 Y82.210 E1.53417
G1 X68.970 Y82.490 E1.53813
G1 X66.990 Y85.080 E1.57687
G1 X66.760 Y85.340 E1.58100
G1 X65.340 Y86.760 E1.60486
G1 X65.080 Y86.990 E1.60899
G1 X62.490 Y88.970 E1.64773
G1 X62.210 Y89.150 E1.65168
G1 X60.480 Y90.150 E1.67543
G1 X60.170 Y90.300 E1.67952
G1 X57.150 Y91.550 E1.71836
G1 X56.840 Y91.660 E1.72227
G1 X54.910 Y92.180 E1.74603
G1 X54.570 Y92.250 E1.75015
G1 X51.340 Y92.680 E1.78887
G1 X51.000 Y92.700 E1.79292
G1 X49.000 Y92.700 E1.81669
G1 X48.660 Y92.680 E1.82074
G1 X45.420 Y92.250 E1.85958
G1 X45.080 Y92.180 E1.86370
G1 X43.150 Y91.660 E1.88745
G1 X42.840 Y91.550 E1.89136
G1 X39.820 Y90.300 E1.93020
G1 X39.510 Y90.150 E1.93430
G1 X37.780 Y89.150 E1.95804
G1 X37.500 Y88.970 E1.96200
G1 X34.910 Y86.990 E2.00074
G1 X34.650 Y86.760 E2.00487
G1 X33.230 Y85.340 E2.02873
G1 X33.000 Y85.080 E2.03286
G1 X31.020 Y82.490 E2.07160
G1 X30.840 Y82.210 E2.07555
G1 X29.840 Y80.480 E2.09930
G1 X29.690 Y80.170 E2.10339
G1 X28.440 Y77.150 E2.14223
G1 X28.330 Y76.840 E2.14614
G1 X27.810 Y74.910 E2.16989
G1 X27.740 Y74.570 E2.17402
G1 X27.310 Y71.340 E2.21274
G1 X27.290 Y71.000 E2.21679
G1 X27.290 Y69.000 E2.24056
G1 X27.310 Y68.660 E2.24460
G1 X27.740 Y65.420 E2.28344
G1 X27.810 Y65.080 E2.28757
G1 X28.330 Y63.150 E2.31132
G1 X28.440 Y62.840 E2.31523
G1 X29.690 Y59.820 E2.35407
G1 X29.840 Y59.510 E2.35817
G1 X30.840 Y57.780 E2.38191
G1 X31.020 Y57.500 E2.38587
G1 X33.000 Y54.910 E2.42461
G1 X33.230 Y54.650 E2.42873
G1 X34.650 Y53.230 E2.45260
G1 X34.910 Y53.000 E2.45672
G1 X37.428 Y51.075 E2.49440
G1 F480.000 E1.69440
G92 E0
G1 X48.298 Y67.053 F6000.000
G1 E0.80000 F480.000
G1 X48.836 Y66.802 E0.80705 F1500.000
G1 X49.409 Y66.648 E0.81410
G1 X50.000 Y66.597 E0.82115
G1 X50.591 Y66.648 E0.82820
G1 X51.164 Y66.802 E0.83525
G1 X51.702 Y67.053 E0.84230
G1 X52.188 Y67.393 E0.84935
G1 X52.607 Y67.812 E0.85640
G1 X52.947 Y68.298 E0.86345
G1 X53.198 Y68.836 E0.87050
G1 X53.352 Y69.409 E0.87755
G1 X53.403 Y70.000 E0.88460
G1 X53.352 Y70.591 E0.89165
G1 X53.198 Y71.164 E0.89870
G1 X52.947 Y71.702 E0.90575
G1 X52.607 Y72.188 E0.91280
G1 X52.188 Y72.607 E0.91985
G1 X51.702 Y72.947 E0.92690
G1 X51.164 Y73.198 E0.93395
G1 X50.591 Y73.352 E0.94100
G1 X50.000 Y73.403 E0.94805
G1 X49.409 Y73.352 E0.95510
G1 X48.836 Y73.198 E0.96215
G1 X48.298 Y72.947 E0.96920
G1 X47.812 Y72.607 E0.97625
G1 X47.393 Y72.188 E0.98330
G1 X47.053 Y71.702 E0.99035
G1 X46.802 Y71.164 E0.99740
G1 X46.648 Y70.591 E1.00445
G1 X46.597 Y70.000 E1.01150
G1 X46.648 Y69.409 E1.01855
G1 X46.802 Y68.836 E1.02560
G1 X47.053 Y68.298 E1.03265
G1 X47.393 Y67.812 E1.03970
G1 X47.812 Y67.393 E1.04675
G1 X48.225 Y67.104 E1.05273
G1 X48.599 Y67.574 F6000.000
G1 X49.042 Y67.368 E1.05853 F1500.000
G1 X49.514 Y67.241 E1.06434
G1 X50.000 Y67.199 E1.07014
G1 X50.486 Y67.241 E1.07594
G1 X50.958 Y67.368 E1.08174
G1 X51.401 Y67.574 E1.08755
G1 X51.801 Y67.854 E1.09335
G1 X52.146 Y68.199 E1.09915
G1 X52.426 Y68.599 E1.10495
G1 X52.632 Y69.042 E1.11076
G1 X52.759 Y69.514 E1.11656
G1 X52.801 Y70.000 E1.12236
G1 X52.759 Y70.486 E1.12816
G1 X52.632 Y70.958 E1.13397
G1 X52.426 Y71.401 E1.13977
G1 X52.146 Y71.801 E1.14557
G1 X51.801 Y72.146 E1.15137
G1 X51.401 Y72.426 E1.15717
G1 X50.958 Y72.632 E1.16298
G1 X50.410 Y72.765 E1.16968
G1 X50.000 Y72.801 E1.17457
G1 X49.514 Y72.759 E1.18037
G1 X49.042 Y72.632 E1.18618
G1 X48.599 Y72.426 E1.19198
G1 X48.199 Y72.146 E1.19778
G1 X47.854 Y71.801 E1.20358
G1 X47.574 Y71.401 E1.20938
G1 X47.368 Y70.958 E1.21519
G1 X47.241 Y70.486 E1.22099
G1 X47.199 Y70.000 E1.22679
G1 X47.241 Y69.514 E1.23259
G1 X47.368 Y69.042 E1.23840
G1 X47.574 Y68.599 E1.24420
G1 X47.854 Y68.199 E1.25000
G1 X48.199 Y67.854 E1.25580
G1 X48.526 Y67.626 E1.26054
G1 X48.614 Y67.086 F6000.000
G1 X30.838 Y70.000 F6000.000
G1 X31.064 Y67.507 E1.29028 F1500.000
G1 X31.491 Y65.041 E1.32003
G1 X32.355 Y62.691 E1.34978
G1 X33.405 Y60.419 E1.37952
G1 X34.848 Y58.373 E1.40927
G1 X36.450 Y56.450 E1.43902
G1 X38.373 Y54.848 E1.46876
G1 X40.419 Y53.405 E1.49851
G1 X42.691 Y52.355 E1.52826
G1 X45.040 Y51.491 E1.55800
G1 X47.507 Y51.064 E1.58775
G1 X50.000 Y50.838 E1.61750
G1 X52.493 Y51.064 E1.64725
G1 X54.959 Y51.491 E1.67699
G1 X57.309 Y52.355 E1.70674
G1 X59.581 Y53.405 E1.73649
G1 X61.627 Y54.848 E1.76623
G1 X63.550 Y56.450 E1.79598
G1 X65.152 Y58.373 E1.82573
G1 X66.595 Y60.419 E1.85547
G1 X67.645 Y62.691 E1.88522
G1 X68.509 Y65.040 E1.91497
G1 X68.936 Y67.507 E1.94471
G1 X69.162 Y70.000 E1.97446
G1 X68.936 Y72.493 E2.00421
G1 X68.509 Y74.960 E2.03395
G1 X67.645 Y77.309 E2.06370
G1 X66.595 Y79.581 E2.09345
G1 X65.152 Y81.627 E2.12319
G1 X63.550 Y83.550 E2.15294
G1 X61.627 Y85.152 E2.18269
G1 X59.581 Y86.595 E2.21244
G1 X57.309 Y87.645 E2.24218
G1 X54.959 Y88.509 E2.27193
G1 X52.493 Y88.936 E2.30168
G1 X50.000 Y89.162 E2.33142
G1 X47.507 Y88.936 E2.36117
G1 X45.040 Y88.509 E2.39092
G1 X42.691 Y87.645 E2.42066
G1 X40.419 Y86.595 E2.45041
G1 X38.373 Y85.152 E2.48016
G1 X36.450 Y83.550 E2.50990
G1 X34.848 Y81.627 E2.53965
G1 X33.405 Y79.581 E2.56940
G1 X32.355 Y77.309 E2.59914
G1 X31.491 Y74.959 E2.62889
G1 X31.064 Y72.493 E2.65864
G1 X30.846 Y70.090 E2.68731
G1 X30.299 Y70.700 F6000.000
G1 X30.199 Y70.700 E2.68850 F750.000
G1 X30.199 Y69.300 E2.70514
G1 X30.299 Y69.300 E2.70633
G1 X30.469 Y67.429 E2.72866
G1 X30.789 Y65.577 E2.75099
G1 X30.692 Y65.551 E2.75218
G1 X31.055 Y64.199 E2.76882
G1 X31.152 Y64.225 E2.77000
G1 X31.800 Y62.461 E2.79233
G1 X32.588 Y60.756 E2.81466
G1 X32.502 Y60.706 E2.81585
G1 X33.202 Y59.493 E2.83249
G1 X33.288 Y59.543 E2.83368
G1 X34.371 Y58.008 E2.85601
G1 X35.574 Y56.564 E2.87834
G1 X35.504 Y56.494 E2.87953
G1 X36.494 Y55.504 E2.89616
G1 X36.564 Y55.574 E2.89735
G1 X38.008 Y54.371 E2.91968
G1 X39.543 Y53.288 E2.94201
G1 X39.493 Y53.202 E2.94320
G1 X40.706 Y52.502 E2.95984
G1 X40.756 Y52.588 E2.96103
G1 X42.461 Y51.800 E2.98336
G1 X44.225 Y51.152 E3.00569
G1 X44.199 Y51.055 E3.00688
G1 X45.551 Y50.692 E3.02351
G1 X45.577 Y50.789 E3.02470
G1 X47.429 Y50.469 E3.04703
G1 X49.300 Y50.299 E3.06936
G1 X49.300 Y50.199 E3.07055
G1 X50.700 Y50.199 E3.08719
G1 X50.700 Y50.299 E3.08838
G1 X52.571 Y50.469 E3.11071
G1 X54.423 Y50.789 E3.13303
G1 X54.449 Y50.692 E3.13422
G1 X55.801 Y51.055 E3.15086
G1 X55.775 Y51.152 E3.15205
G1 X57.539 Y51.800 E3.17438
G1 X59.244 Y52.588 E3.19671
G1 X59.294 Y52.502 E3.19790
G1 X60.507 Y53.202 E3.21454
G1 X60.457 Y53.288 E3.21572
G1 X61.992 Y54.371 E3.23805
G1 X63.436 Y55.574 E3.26038
G1 X63.506 Y55.504 E3.26157
G1 X64.496 Y56.494 E3.27821
G1 X64.426 Y56.564 E3.27940
G1 X65.629 Y58.008 E3.30173
G1 X66.712 Y59.543 E3.32406
G1 X66.798 Y59.493 E3.32525
G1 X67.498 Y60.706 E3.34188
G1 X67.412 Y60.756 E3.34307
G1 X68.200 Y62.461 E3.36540
G1 X68.848 Y64.225 E3.38773
G1 X68.945 Y64.199 E3.38892
G1 X69.308 Y65.551 E3.40556
G1 X69.211 Y65.577 E3.40675
G1 X69.531 Y67.429 E3.42908
G1 X69.701 Y69.300 E3.45141
G1 X69.801 Y69.300 E3.45260
G1 X69.801 Y70.700 E3.46923
G1 X69.701 Y70.700 E3.47042
G1 X69.531 Y72.571 E3.49275
G1 X69.211 Y74.423 E3.51508
G1 X69.308 Y74.449 E3.51627
G1 X68.945 Y75.801 E3.53291
G1 X68.848 Y75.775 E3.53410
G1 X68.200 Y77.539 E3.55643
G1 X67.412 Y79.244 E3.57875
G1 X67.498 Y79.294 E3.57994
G1 X66.798 Y80.507 E3.59658
G1 X66.712 Y80.457 E3.59777
G1 X65.629 Y81.992 E3.62010
G1 X64.426 Y83.436 E3.64243
G1 X64.496 Y83.506 E3.64362
G1 X63.506 Y84.496 E3.66025
G1 X63.436 Y84.426 E3.66144
G1 X61.992 Y85.629 E3.68377
G1 X60.457 Y86.712 E3.70610
G1 X60.507 Y86.798 E3.70729
G1 X59.294 Y87.498 E3.72393
G1 X59.244 Y87.412 E3.72512
G1 X57.539 Y88.200 E3.74745
G1 X55.775 Y88.848 E3.76978
G1 X55.801 Y88.945 E3.77097
G1 X54.449 Y89.308 E3.78760
G1 X54.423 Y89.211 E3.78879
G1 X52.571 Y89.531 E3.81112
G1 X50.700 Y89.701 E3.83345
G1 X50.700 Y89.801 E3.83464
G1 X49.300 Y89.801 E3.85128
G1 X49.300 Y89.701 E3.85247
G1 X47.429 Y89.531 E3.87480
G1 X45.577 Y89.211 E3.89713
G1 X45.551 Y89.308 E3.89831
G1 X44.199 Y88.945 E3.91495
G1 X44.225 Y88.848 E3.91614
G1 X42.461 Y88.200 E3.93847
G1 X40.756 Y87.412 E3.96080
G1 X40.706 Y87.498 E3.96199
G1 X39.493 Y86.798 E3.97863
G1 X39.543 Y86.712 E3.97982
G1 X38.008 Y85.629 E4.00214
G1 X36.564 Y84.426 E4.02447
G1 X36.494 Y84.496 E4.02566
G1 X35.504 Y83.506 E4.04230
G1 X35.574 Y83.436 E4.04349
G1 X34.371 Y81.992 E4.06582
G1 X33.288 Y80.457 E4.08815
G1 X33.202 Y80.507 E4.08934
G1 X32.502 Y79.294 E4.10597
G1 X32.588 Y79.244 E4.10716
G1 X31.800 Y77.539 E4.12949
G1 X31.152 Y75.775 E4.15182
G1 X31.055 Y75.801 E4.15301
G1 X30.692 Y74.449 E4.16965
G1 X30.789 Y74.423 E4.17084
G1 X30.469 Y72.571 E4.19317
G1 X30.307 Y70.790 E4.21443
G1 X30.296 Y70.600 F6000.000
G1 X31.944 Y74.914 F6000.000
G1 X45.086 Y88.056 E4.51337 F1800.000
G1 X46.491 Y88.312 E4.53634
G1 X31.688 Y73.509 E4.87308
G1 X31.476 Y72.149 E4.89522
G1 X47.851 Y88.524 E5.26771
G1 X49.115 Y88.639 E5.28811
G1 X31.361 Y70.885 E5.69194
G1 X31.310 Y69.685 E5.71126
G1 X50.315 Y88.690 E6.14357
G1 X51.368 Y88.595 E6.16058
G1 X31.405 Y68.632 E6.61467
G1 X31.501 Y67.579 E6.63167
G1 X52.421 Y88.499 E7.10754
G1 X53.401 Y88.331 E7.12353
G1 X31.669 Y66.599 E7.61786
G1 X31.838 Y65.620 E7.63385
G1 X54.380 Y88.162 E8.14659
G1 X55.286 Y87.919 E8.16168
G1 X32.081 Y64.714 E8.68952
G1 X32.390 Y63.874 E8.70391
G1 X56.126 Y87.610 E9.24382
G1 X56.965 Y87.302 E9.25822
G1 X32.698 Y63.035 E9.81021
G1 X33.050 Y62.238 E9.82422
G1 X57.762 Y86.950 E10.38634
G1 X58.547 Y86.587 E10.40025
G1 X33.413 Y61.453 E10.97197
G1 X33.776 Y60.667 E10.98589
G1 X59.333 Y86.224 E11.56721
G1 X60.010 Y85.753 E11.58048
G1 X34.247 Y59.990 E12.16650
G1 X34.722 Y59.316 E12.17976
G1 X46.263 Y70.857 E12.44226
G1 X46.186 Y69.631 E12.46201
G1 X35.197 Y58.643 E12.71197
G1 X35.719 Y58.016 E12.72508
G1 X46.386 Y68.683 E12.96772
G1 X46.776 Y67.924 E12.98144
G1 X36.241 Y57.390 E13.22107
G1 X36.792 Y56.792 E13.23414
G1 X47.291 Y67.291 E13.47294
G1 X47.924 Y66.776 E13.48607
G1 X37.390 Y56.241 E13.72569
G1 X38.016 Y55.719 E13.73881
G1 X48.683 Y66.386 E13.98145
G1 X49.631 Y66.186 E13.99704
G1 X38.643 Y55.197 E14.24699
G1 X39.316 Y54.722 E14.26025
G1 X50.857 Y66.263 E14.52276
G1 X53.737 Y69.143 F6000.000
G1 X65.278 Y80.684 E14.78526 F1800.000
G1 X65.753 Y80.010 E14.79852
G1 X39.990 Y54.247 E15.38454
G1 X40.667 Y53.776 E15.39781
G1 X66.224 Y79.333 E15.97913
G1 X66.587 Y78.547 E15.99305
G1 X41.453 Y53.413 E16.56477
G1 X42.238 Y53.050 E16.57868
G1 X66.950 Y77.762 E17.14080
G1 X67.302 Y76.965 E17.15481
G1 X43.035 Y52.698 E17.70681
G1 X43.874 Y52.390 E17.72120
G1 X67.610 Y76.126 E18.26111
G1 X67.919 Y75.286 E18.27551
G1 X44.714 Y52.081 E18.80334
G1 X45.620 Y51.838 E18.81843
G1 X68.162 Y74.380 E19.33117
G1 X68.331 Y73.401 E19.34716
G1 X46.599 Y51.669 E19.84149
G1 X47.579 Y51.501 E19.85748
G1 X68.499 Y72.421 E20.33335
G1 X68.595 Y71.368 E20.35035
G1 X48.632 Y51.405 E20.80444
G1 X49.685 Y51.310 E20.82145
G1 X68.690 Y70.315 E21.25376
G1 X68.639 Y69.115 E21.27308
G1 X50.885 Y51.361 E21.67691
G1 X52.149 Y51.476 E21.69731
G1 X68.524 Y67.851 E22.06980
G1 X68.312 Y66.491 E22.09194
G1 X53.509 Y51.688 E22.42868
G1 X54.914 Y51.944 E22.45165
G1 X68.056 Y65.086 E22.75059
G1 X67.388 Y63.270 F6000.000
G1 X56.730 Y52.612 E22.99304 F1800.000
G1 X58.794 Y53.527 F6000.000
G1 X66.473 Y61.206 E23.16771 F1800.000
G1 X63.525 Y57.110 F6000.000
G1 X62.890 Y56.475 E23.18217 F1800.000
G1 X53.814 Y70.369 F6000.000
G1 X64.803 Y81.357 E23.43212 F1800.000
G1 X64.281 Y81.984 E23.44524
G1 X53.614 Y71.317 E23.68788
G1 X53.224 Y72.076 E23.70160
G1 X63.759 Y82.610 E23.94122
G1 X63.208 Y83.208 E23.95430
G1 X52.709 Y72.709 E24.19309
G1 X52.076 Y73.224 E24.20623
G1 X62.610 Y83.759 E24.44585
G1 X61.984 Y84.281 E24.45897
G1 X51.317 Y73.614 E24.70160
G1 X50.369 Y73.814 E24.71719
G1 X61.357 Y84.803 E24.96715
G1 X60.684 Y85.278 E24.98041
G1 X49.143 Y73.737 E25.24291
G1 X43.270 Y87.388 F6000.000
G1 X32.612 Y76.730 E25.48536 F1800.000
G1 X33.527 Y78.794 F6000.000
G1 X41.206 Y86.473 E25.66003 F1800.000
G1 X37.110 Y83.525 F6000.000
G1 X36.475 Y82.890 E25.67449 F1800.000
M106 S196
G1 F480.000 E24.87449
G92 E0
G1 Z0.700 F6000.000
G1 X47.393 Y72.188 F6000.000
G1 E0.80000 F480.000
G1 X47.053 Y71.702 E0.80705 F3000
G1 X46.802 Y71.164 E0.81410
G1 X46.742 Y70.941 E0.81685
G1 X46.648 Y70.591 E0.82115
G1 X46.597 Y70.000 E0.82820
G1 X46.648 Y69.409 E0.83525
G1 X46.802 Y68.836 E0.84230
G1 X47.053 Y68.298 E0.84935
G1 X47.393 Y67.812 E0.85640
G1 X47.812 Y67.393 E0.86345
G1 X48.298 Y67.053 E0.87050
G1 X48.836 Y66.802 E0.87755
G1 X49.409 Y66.648 E0.88460
G1 X49.694 Y66.623 E0.88800
G1 X50.000 Y66.597 E0.89165
G1 X50.591 Y66.648 E0.89870
G1 X51.164 Y66.802 E0.90575
G1 X51.702 Y67.053 E0.91280
G1 X52.188 Y67.393 E0.91985
G1 X52.607 Y67.812 E0.92690
G1 X52.947 Y68.298 E0.93395
G1 X53.198 Y68.836 E0.94100
G1 X53.352 Y69.409 E0.94805
G1 X53.377 Y69.694 E0.95145
G1 X53.403 Y70.000 E0.95510
G1 X53.352 Y70.591 E0.96215
G1 X53.198 Y71.164 E0.96920
G1 X52.947 Y71.702 E0.97625
G1 X52.607 Y72.188 E0.98330
G1 X52.188 Y72.607 E0.99035
G1 X51.702 Y72.947 E0.99740
G1 X51.164 Y73.198 E1.00445
G1 X50.591 Y73.352 E1.01150
G1 X50.000 Y73.403 E1.01855
G1 X49.409 Y73.352 E1.02560
G1 X48.836 Y73.198 E1.03265
G1 X48.298 Y72.947 E1.03970
G1 X47.812 Y72.607 E1.04675
G1 X47.456 Y72.251 E1.05273
G1 X47.854 Y71.801 F6000.000
G1 X47.574 Y71.401 E1.05853 F3000
G1 X47.368 Y70.958 E1.06434
G1 X47.322 Y70.785 E1.06646
G1 X47.241 Y70.486 E1.07014
G1 X47.199 Y70.000 E1.07594
G1 X47.241 Y69.514 E1.08174
G1 X47.368 Y69.042 E1.08755
G1 X47.574 Y68.599 E1.09335
G1 X47.854 Y68.199 E1.09915
G1 X48.199 Y67.854 E1.10495
G1 X48.599 Y67.574 E1.11076
G1 X49.042 Y67.368 E1.11656
G1 X49.215 Y67.322 E1.11868
G1 X49.514 Y67.241 E1.12236
G1 X50.000 Y67.199 E1.12816
G1 X50.486 Y67.241 E1.13397
G1 X50.958 Y67.368 E1.13977
G1 X51.401 Y67.574 E1.14557
G1 X51.801 Y67.854 E1.15137
G1 X52.146 Y68.199 E1.15717
G1 X52.426 Y68.599 E1.16298
G1 X52.632 Y69.042 E1.16878
G1 X52.759 Y69.514 E1.17458
G1 X52.779 Y69.746 E1.17735
G1 X52.801 Y70.000 E1.18038
G1 X52.759 Y70.486 E1.18619
G1 X52.632 Y70.958 E1.19199
G1 X52.426 Y71.401 E1.19779
G1 X52.146 Y71.801 E1.20359
G1 X51.801 Y72.146 E1.20940
G1 X51.401 Y72.426 E1.21520
G1 X50.958 Y72.632 E1.22100
G1 X50.486 Y72.759 E1.22680
G1 X50.000 Y72.801 E1.23261
G1 X49.514 Y72.759 E1.23841
